svgs/duotone/suitcase.svg

<svg xmlns="http://www.w3.org/2000/svg" viewBox="0 0 512 512"><!--! Font Awesome Pro 6.4.0 by @fontawesome - https://fontawesome.com License - https://fontawesome.com/license (Commercial License) Copyright 2023 Fonticons, Inc. --><defs><style>.fa-secondary{opacity:.4}</style></defs><path class="fa-primary" d="M176 56V96H336V56c0-4.4-3.6-8-8-8H184c-4.4 0-8 3.6-8 8zM128 96V56c0-30.9 25.1-56 56-56H328c30.9 0 56 25.1 56 56V96v32V480H128V128 96zM64 96H96V480H64c-35.3 0-64-28.7-64-64V160c0-35.3 28.7-64 64-64zM448 480H416V96h32c35.3 0 64 28.7 64 64V416c0 35.3-28.7 64-64 64z"/><path class="fa-secondary" d="M96 96h32V480H96V96zm288 0h32V480H384V96z"/></svg>

<svg xmlns="http://www.w3.org/2000/svg" viewBox="0 0 512 512"><!--! Font Awesome Pro 6.3.0 by @fontawesome - https://fontawesome.com License - https://fontawesome.com/license (Commercial License) Copyright 2023 Fonticons, Inc. --><defs><style>.fa-secondary{opacity:.4}</style></defs><path class="fa-primary" d="M128 56C128 25.07 153.1 0 184 0H328C358.9 0 384 25.07 384 56V480H128V56zM176 96H336V56C336 51.58 332.4 48 328 48H184C179.6 48 176 51.58 176 56V96zM64 96H96V480H64C28.65 480 0 451.3 0 416V160C0 124.7 28.65 96 64 96zM448 480H416V96H448C483.3 96 512 124.7 512 160V416C512 451.3 483.3 480 448 480z"/><path class="fa-secondary" d="M128 480H96V96H128V480zM416 480H384V96H416V480z"/></svg>
